dist/svg/list-open.svg

<!-- Generated by Trend Micro Style Portal -->
<svg version="1.1" xmlns="http://www.w3.org/2000/svg" width="16" height="16" viewBox="0 0 16 16">
  <title>list-open</title>
  <path fill="rgb(34,34,34)" d="M2 1c-0.6 0-1 0.4-1 1v12c0 0.6 0.4 1 1 1h10c0.6 0 1-0.4 1-1v-1h-1v1h-10v-12h10v1h1v-1c0-0.6-0.4-1-1-1h-10zM4 5h5v1h-5v-1zM4 7.5h7v1h-7v-1zM4 10h5v1h-5v-1zM11.5 12.5l-1-1 3.5-3.5-3.5-3.5 1-1 4.5 4.5-4.5 4.5z"></path>
</svg>

<svg width="16" height="16" viewBox="0 0 16 16" fill="rgb(34, 34, 34)" xmlns="http://www.w3.org/2000/svg"><title>list-open</title><path d="M2 1C1.4 1 1 1.4 1 2V14C1 14.6 1.4 15 2 15H12C12.6 15 13 14.6 13 14V13H12V14H2V2H12V3H13V2C13 1.4 12.6 1 12 1H2ZM4 5H9V6H4V5ZM4 7.5H11V8.5H4V7.5ZM4 10H9V11H4V10ZM11.5 12.5L10.5 11.5L14 8L10.5 4.5L11.5 3.5L16 8L11.5 12.5Z" fill="rgb(34, 34, 34)" fill-opacity="1.00"/></svg>
